Simply-Black-Circles/scalable/categories/applications-accessories.svg

<svg xmlns="http://www.w3.org/2000/svg" width="48" height="48" viewBox="0 0 12.7 12.7"><path fill="#1a1a1a" d="M6.344.077A6.267 6.267 0 0 0 .076 6.344a6.267 6.267 0 0 0 6.268 6.267 6.267 6.267 0 0 0 6.267-6.267A6.267 6.267 0 0 0 6.344.077zm-.018.932a5.388 5.388 0 0 1 5.388 5.39 5.388 5.388 0 0 1-5.388 5.387A5.388 5.388 0 0 1 .937 6.398a5.388 5.388 0 0 1 5.39-5.389zM5 2.463a1.233 1.233 0 1 0 .506 2.356l3.81 3.81h.31v-.925L7.466 5.546l.728-.727a1.229 1.229 0 0 0 1.738-1.123 1.232 1.232 0 1 0-2.355.506l-.728.727-.728-.727a1.23 1.23 0 0 0 .111-.506c0-.681-.551-1.233-1.233-1.233zm0 .616a.616.616 0 1 1 0 1.233.616.616 0 0 1 0-1.233zm3.7 0a.616.616 0 1 1 0 1.233.616.616 0 0 1 0-1.233zM2.666 4.887v4.941h4.942L5.55 7.772l-.025-.001-.647.647.423.422H3.654V7.193l.293.291.642-.643.003-.004.003-.018v-.006zm2.86 2.884l.001-.001h-.002zM6.85 5.392a.154.154 0 1 1 0 .31.154.154 0 0 1 0-.31zm-.925.462l-1.85 1.85v.925h.308l2.16-2.158z"/></svg>

<?xml version="1.0" encoding="UTF-8" standalone="no"?>
<svg
   xmlns:dc="http://purl.org/dc/elements/1.1/"
   xmlns:cc="http://creativecommons.org/ns#"
   xmlns:rdf="http://www.w3.org/1999/02/22-rdf-syntax-ns#"
   xmlns:svg="http://www.w3.org/2000/svg"
   xmlns="http://www.w3.org/2000/svg"
   xmlns:sodipodi="http://sodipodi.sourceforge.net/DTD/sodipodi-0.dtd"
   xmlns:inkscape="http://www.inkscape.org/namespaces/inkscape"
   width="48"
   height="48"
   viewBox="0 0 12.7 12.7"
   version="1.1"
   id="svg4"
   sodipodi:docname="applications-accessories.svg"
   inkscape:version="0.92.4 (5da689c313, 2019-01-14)">
  <metadata
     id="metadata10">
    <rdf:RDF>
      <cc:Work
         rdf:about="">
        <dc:format>image/svg+xml</dc:format>
        <dc:type
           rdf:resource="http://purl.org/dc/dcmitype/StillImage" />
        <dc:title></dc:title>
      </cc:Work>
    </rdf:RDF>
  </metadata>
  <defs
     id="defs8" />
  <sodipodi:namedview
     pagecolor="#ffffff"
     bordercolor="#666666"
     borderopacity="1"
     objecttolerance="10"
     gridtolerance="10"
     guidetolerance="10"
     inkscape:pageopacity="0"
     inkscape:pageshadow="2"
     inkscape:window-width="1087"
     inkscape:window-height="480"
     id="namedview6"
     showgrid="false"
     inkscape:zoom="4.9166667"
     inkscape:cx="2.1355932"
     inkscape:cy="24"
     inkscape:window-x="0"
     inkscape:window-y="25"
     inkscape:window-maximized="0"
     inkscape:current-layer="svg4" />
  <path
     d="M 6.344,0.077 A 6.267,6.267 0 0 0 0.076,6.344 6.267,6.267 0 0 0 6.344,12.611 6.267,6.267 0 0 0 12.611,6.344 6.267,6.267 0 0 0 6.344,0.077 Z M 6.326,1.009 A 5.388,5.388 0 0 1 11.714,6.399 5.388,5.388 0 0 1 6.326,11.786 5.388,5.388 0 0 1 0.937,6.398 5.388,5.388 0 0 1 6.327,1.009 Z M 5,2.463 a 1.233,1.233 0 1 0 0.506,2.356 l 3.81,3.81 h 0.31 V 7.704 L 7.466,5.546 8.194,4.819 A 1.229,1.229 0 0 0 9.932,3.696 1.232,1.232 0 1 0 7.577,4.202 L 6.849,4.929 6.121,4.202 A 1.23,1.23 0 0 0 6.232,3.696 C 6.232,3.015 5.681,2.463 4.999,2.463 Z M 5,3.079 A 0.6165,0.6165 0 1 1 5,4.312 0.6165,0.6165 0 0 1 5,3.079 Z m 3.7,0 a 0.6165,0.6165 0 1 1 0,1.233 0.6165,0.6165 0 0 1 0,-1.233 z M 2.666,4.887 V 9.828 H 7.608 L 5.55,7.772 5.525,7.771 4.878,8.418 5.301,8.84 H 3.654 V 7.193 L 3.947,7.484 4.589,6.841 4.592,6.837 4.595,6.819 V 6.813 Z M 5.526,7.771 5.527,7.77 H 5.525 Z M 6.85,5.392 a 0.155,0.155 0 1 1 0,0.31 0.155,0.155 0 0 1 0,-0.31 z m -0.925,0.462 -1.85,1.85 v 0.925 h 0.308 l 2.16,-2.158 z"
     id="path2"
     inkscape:connector-curvature="0"
     style="fill:#1a1a1a" />
</svg>
